learning-site/svg (106).svg

<svg xmlns="http://www.w3.org/2000/svg" xmlns:xlink="http://www.w3.org/1999/xlink" viewBox="0 0 100 100"><defs><rect id="a" x="0" y="0" width="96" height="96" rx="48"/></defs><g fill="none" fill-rule="evenodd"><g transform="translate(1.52 1.52)"><mask id="b" fill="#fff"><use xlink:href="#a"/></mask><use fill="#C0DDF4" xlink:href="#a"/><path fill="#8C6239" mask="url(#b)" d="M-1.52 67.48h100v38h-100z"/><g opacity=".2" mask="url(#b)" stroke="#FFF" stroke-width="2"><path d="M70.925 74.843a4.386 4.386 0 1 1-8.774 0 4.386 4.386 0 1 1 8.774 0zm21.385 0a4.386 4.386 0 1 1-8.773 0 4.386 4.386 0 1 1 8.773 0zM33.079 88.816a4.386 4.386 0 1 1-8.774 0 4.386 4.386 0 1 1 8.774 0zm-15.757 0a4.386 4.386 0 1 1-8.774 0 4.386 4.386 0 1 1 8.774 0zm38.716-1.643a4.386 4.386 0 1 1-8.272 2.92 4.386 4.386 0 0 1 8.272-2.92zm11.924 0a4.386 4.386 0 1 1-8.272 2.92 4.386 4.386 0 0 1 8.272-2.92zm18.738 0a4.386 4.386 0 1 1-8.272 2.92 4.386 4.386 0 0 1 8.272-2.92zm-36.694-13.79a4.386 4.386 0 1 1-8.272 2.92 4.386 4.386 0 0 1 8.272-2.92zm-16.879 0a4.386 4.386 0 1 1-8.272 2.92 4.386 4.386 0 0 1 8.272-2.92z"/><path d="M74.763 70.548v8.59m-1.703 5.049v8.591m6.638-22.23v8.59m-59.596 5.108v8.591M37.1 84.246v8.591m0-22.289v8.59m-17.318-8.59v8.59" stroke-linecap="round"/><path d="M9.867 73.383a4.387 4.387 0 1 1-8.274 2.92 4.387 4.387 0 0 1 8.274-2.92z"/><path d="M14.387 70.72v8.591m28.196 4.935v8.591m16.086-22.289v8.59m-4.57-8.59v8.59M91.1 84.175v8.59m6.3-22.217v8.59m-1.704 5.049v8.591m-96.942-8.603v8.59m4.685-8.59v8.59" stroke-linecap="round"/><path d="M56.225 100.672a4.387 4.387 0 1 1-8.273 2.92 4.387 4.387 0 0 1 8.273-2.92zm18.738 0a4.387 4.387 0 1 1-8.273 2.92 4.387 4.387 0 0 1 8.273-2.92z"/><path d="M61.323 97.686v8.59m18.041-8.602v8.591" stroke-linecap="round"/><path d="M97.6 100.672a4.387 4.387 0 1 1-8.273 2.92 4.387 4.387 0 0 1 8.272-2.92z"/><path d="M83.958 97.686v8.59" stroke-linecap="round"/><path d="M16.802 100.672a4.386 4.386 0 1 1-5.596-2.677 4.386 4.386 0 0 1 5.596 2.677z"/><path d="M3.162 97.686v8.59m18.041-8.602v8.591" stroke-linecap="round"/><path d="M39.438 100.672a4.387 4.387 0 1 1-8.274 2.92 4.387 4.387 0 0 1 8.274-2.92z"/><path d="M25.798 97.686v8.59m18.042-8.602v8.591" stroke-linecap="round"/></g><g mask="url(#b)"><path d="M66.03 57.55v11.739" stroke="#65A865" stroke-width="2"/><path d="M65.832 60.294s-1.219-15.717 13.41-14.86c0 0 .986 11.933-13.41 14.86" fill="#1C881E"/><path d="M66.746 60.552S50.8 58.332 55.113 43.98c0 0 12.121 1.626 11.633 16.572" fill="#65A865"/></g><g mask="url(#b)"><path d="M56.655 37.625a2.002 2.002 0 0 0-.877-1.793l-6.633-4.474a2 2 0 0 0-1.593-.286L33.11 34.6c-1.072.263-7.156 19.28-6.488 18.95l28.922-14.267a1.999 1.999 0 0 0 1.11-1.658" fill="#8BA6B1"/><path d="M26.622 53.55l3.58-1.767 9.901-18.89L33.11 34.6c-1.072.263-7.156 19.28-6.488 18.95" fill="#7B929B"/><path d="M19.59 9.01l-2.488-1.677C10.702 3.016 1.984 4.71-2.333 11.11c-4.317 6.4-2.622 15.119 3.778 19.436A2 2 0 0 0 3.68 27.23C-.889 24.146-2.1 17.919.983 13.347c3.083-4.571 9.311-5.782 13.882-2.698l2.487 1.677A2 2 0 0 0 19.59 9.01" fill="#8BA6B1"/><path d="M27.64 52.434l16.684-31.832a2.001 2.001 0 0 0-.654-2.586L23.773 4.596a2 2 0 0 0-2.643.362L-2.317 32.567a2.001 2.001 0 0 0 .407 2.953l26.529 17.894.015.01a2 2 0 0 0 3.006-.99" fill="#ADBDC4"/><path d="M27.64 52.434l16.684-31.832a2.001 2.001 0 0 0-.654-2.586l-9.948-6.71L13.59 41.15a2 2 0 0 1-2.777.54L-2.44 32.75a1.99 1.99 0 0 0-.332 1.385 2 2 0 0 0 .863 1.385L24.62 53.414l.015.01a2 2 0 0 0 3.006-.99" fill="#8BA6B1"/></g></g><rect x="2" y="2" width="96" height="96" rx="48" stroke="#0078D4" stroke-width="4"/></g></svg>

<svg xmlns="http://www.w3.org/2000/svg" xmlns:xlink="http://www.w3.org/1999/xlink" viewBox="0 0 100 100"><defs><rect id="a" x="0" y="0" width="96" height="96" rx="48"/></defs><g fill="none" fill-rule="evenodd"><g transform="translate(1.52 1.52)"><mask id="b" fill="#fff"><use xlink:href="#a"/></mask><use fill="#C0DDF4" xlink:href="#a"/><path fill="#8C6239" mask="url(#b)" d="M-1.52 67.48h100v38h-100z"/><g opacity=".2" mask="url(#b)" stroke="#FFF" stroke-width="2"><path d="M70.925 74.843a4.386 4.386 0 1 1-8.774 0 4.386 4.386 0 1 1 8.774 0zM92.31 74.843a4.386 4.386 0 1 1-8.773 0 4.386 4.386 0 1 1 8.773 0zM33.079 88.816a4.386 4.386 0 1 1-8.774 0 4.386 4.386 0 1 1 8.774 0zM17.322 88.816a4.386 4.386 0 1 1-8.774 0 4.386 4.386 0 1 1 8.774 0zM56.038 87.173a4.386 4.386 0 1 1-8.272 2.92 4.386 4.386 0 0 1 8.272-2.92zM67.962 87.173a4.386 4.386 0 1 1-8.272 2.92 4.386 4.386 0 0 1 8.272-2.92zM86.7 87.173a4.386 4.386 0 1 1-8.272 2.92 4.386 4.386 0 0 1 8.272-2.92zM50.006 73.383a4.386 4.386 0 1 1-8.272 2.92 4.386 4.386 0 0 1 8.272-2.92zM33.127 73.383a4.386 4.386 0 1 1-8.272 2.92 4.386 4.386 0 0 1 8.272-2.92z"/><path d="M74.763 70.548v8.59M73.06 84.187v8.591M79.698 70.548v8.59M20.102 84.246v8.591M37.1 84.246v8.591M37.1 70.548v8.59M19.782 70.548v8.59" stroke-linecap="round"/><path d="M9.867 73.383a4.387 4.387 0 1 1-8.274 2.92 4.387 4.387 0 0 1 8.274-2.92z"/><path d="M14.387 70.72v8.591M42.583 84.246v8.591M58.669 70.548v8.59M54.099 70.548v8.59M91.1 84.175v8.59M97.4 70.548v8.59M95.696 84.187v8.591M-1.246 84.175v8.59M3.439 84.175v8.59" stroke-linecap="round"/><path d="M56.225 100.672a4.387 4.387 0 1 1-8.273 2.92 4.387 4.387 0 0 1 8.273-2.92zM74.963 100.672a4.387 4.387 0 1 1-8.273 2.92 4.387 4.387 0 0 1 8.273-2.92z"/><path d="M61.323 97.686v8.59M79.364 97.674v8.591" stroke-linecap="round"/><path d="M97.6 100.672a4.387 4.387 0 1 1-8.273 2.92 4.387 4.387 0 0 1 8.272-2.92z"/><path d="M83.958 97.686v8.59" stroke-linecap="round"/><path d="M16.802 100.672a4.386 4.386 0 1 1-5.596-2.677 4.386 4.386 0 0 1 5.596 2.677z"/><path d="M3.162 97.686v8.59M21.203 97.674v8.591" stroke-linecap="round"/><path d="M39.438 100.672a4.387 4.387 0 1 1-8.274 2.92 4.387 4.387 0 0 1 8.274-2.92z"/><path d="M25.798 97.686v8.59M43.84 97.674v8.591" stroke-linecap="round"/></g><g mask="url(#b)"><path d="M66.03 57.55v11.739" stroke="#65A865" stroke-width="2"/><path d="M65.832 60.294s-1.219-15.717 13.41-14.86c0 0 .986 11.933-13.41 14.86" fill="#1C881E"/><path d="M66.746 60.552S50.8 58.332 55.113 43.98c0 0 12.121 1.626 11.633 16.572" fill="#65A865"/></g><g mask="url(#b)"><path d="M56.655 37.625a2.002 2.002 0 0 0-.877-1.793l-6.633-4.474a2 2 0 0 0-1.593-.286L33.11 34.6c-1.072.263-7.156 19.28-6.488 18.95l28.922-14.267a1.999 1.999 0 0 0 1.11-1.658" fill="#8BA6B1"/><path d="M26.622 53.55l3.58-1.767 9.901-18.89L33.11 34.6c-1.072.263-7.156 19.28-6.488 18.95" fill="#7B929B"/><path d="M19.59 9.01l-2.488-1.677C10.702 3.016 1.984 4.71-2.333 11.11c-4.317 6.4-2.622 15.119 3.778 19.436A2 2 0 0 0 3.68 27.23C-.889 24.146-2.1 17.919.983 13.347c3.083-4.571 9.311-5.782 13.882-2.698l2.487 1.677A2 2 0 0 0 19.59 9.01" fill="#8BA6B1"/><path d="M27.64 52.434l16.684-31.832a2.001 2.001 0 0 0-.654-2.586L23.773 4.596a2 2 0 0 0-2.643.362L-2.317 32.567a2.001 2.001 0 0 0 .407 2.953l26.529 17.894.015.01a2 2 0 0 0 3.006-.99" fill="#ADBDC4"/><path d="M27.64 52.434l16.684-31.832a2.001 2.001 0 0 0-.654-2.586l-9.948-6.71L13.59 41.15a2 2 0 0 1-2.777.54L-2.44 32.75a1.99 1.99 0 0 0-.332 1.385 2 2 0 0 0 .863 1.385l26.529 17.894.015.01a2 2 0 0 0 3.006-.99" fill="#8BA6B1"/></g></g><rect x="2" y="2" width="96" height="96" rx="48" stroke="#0078D4" stroke-width="4"/></g></svg>
